X: 2633
T: Bancroft
R: polka
M: 2/4
K: Dmajor
|:d>f ec|dA A2|BG GB|cA Bc|
d>f ec|dA Ad|cA GE|D2 D2:|
|:f>a ge|fd cA|GB Ad|cA GE|
f>a ge|fd cA|GB Ac|d2 d2:|

